!!!COM: Parera, Jose Blas
!!!CDT: 1765-1830
!!!OTL: National Anthem, Argentina
!!!ENC: Davis, Matthew J.
!!Vocal Line Only
**kern
*clefG2
*k[b-e-]
*B-:
*M4/4
=1-
1r
=2
1r
=3
1r
=4
1r
=5
1r
=6
1r
=7
1r
=8
1r
=9
1r
=10
1r
=11
1r
=12
1r
=13
1r
=14
1r
=15
1r
=16
1r
=17
1r
=18
1r
=19
1r
=20
1r
=21
1r
=22
1r
=23
1r
=24
2r
8r
8f
8g
8a
=25
4b-
8.b-
16dd
8cc
8b-
8.a
16g
=26
(4.f
8d)
8B-
8r
8.d
16f
=27
4e-
8.e-
16g
4f
8.g
16a
=28
4b-
4r
8.r
16B-
8.B-
26c
=29
4d
8.d
16d
(8d
8f)
8.en
16g
=30
4g
4f
4r
8.f
16g
=31
4g
8.g
16b-
4en
8.en
16g
=32
4f
4r
2r
=33
1r
=34
2r
8r
(8f
8g)
8a
=35
4b-
8.f
16f
(8g-
8f)
8.e-
16d-
=36
(2d-
8c
8r
8.f
16f
=37
4b-
8.cc
16cc
4dd-
8.en
16en
=38
4f
4r
4r
8.f
16f
=39
4b-
8.b-
16b-
4cc
8.cc
16cc
=40
4dd-
4b-
4r
8.f
16f
=41
4b-
8.b-
16b-
4cc
8.cc
16cc
=42
(4dd-
4b-)
4r
8.b-
16dd-
=43
(8dd-
8cc)
8cc
8b-
(8cc
8b-)
8a
8b-
=44
4f
4r
8r
(8f
8g)
8a
=45
4b-
8.b-
16a
(8g
8f)
8e-
8d
=46
4f
4e-
4r
8.e-
16g
=47
(8f
8b-)
8d
8f
8.f
16e-
8d
8c
=48
2d
8r
(8f
8g)
8a
=49
4b-
8.b-
16a
(8g
8f)
8.e-
16d
=50
4f
4e-
4r
8.e-
16g
=51
(8f
8b-)
8b-
8dd
8.dd
16cc
8b-
8a
=52
2b-
2r
=53
1r
=54
1r
=55
1r
=56
1r
=57
1r
=58
1r
=59
1r
=60
2r
4r
8.f
16f
=61
4b-
4f
4d
4f
=62
4b-
4b-
4r
8.f
16f
=63
4b-
4f
4d
4f
=64
2b-
4r
8.b-
16dd
=65
4cc
4b-
4a
4g
=66
2.f
8.b-
16a
=67
(4a
8.g)
16f
(8f
8e-)
8.e-
16d
=68
(8.d
16f
16en
16f
16g
16f)
8c
(8f
8g)
8a
=69
4b-
8b-
8b-
4a
8a
8a
=70
4b-
4r
4.ee-
8ee-
=71
(8ee-
9dd-)
8cc
8b-
4f
8a
8a
=72
4b-
4r
4.e-
8e-
=73
(8ee-
9dd)
8cc
8b-
4f
8f
8f
=74
2b-
2r
=75
1r
=76
1r
==|!
*-
